X: 54
T: JIG: Morrison's
T: Maurice Carmody's Favourite / Stick Across the Hob
C: C: Trad.; S: Various
C: Set Leaders: Andrey, Vova, Olya
Z: Oleg Naumov arr.; Zara at The Session
N: https://thesession.org/members/26966/sets/96718
R: Jig
M: 6/8
L: 1/8
Q: 3/8=116
K: Edor
|:"Em"E3 B3|"Em"EBE "D"AFD|"Em"EDE B2 c|"G"dcB "D"AFD|
"Em"E3 B3|"Em"EBE "D"AFD|"G"GFG FGA|"D"dAG FED:||
"Em"Bee fee|"Em"aee fed|"Em"Bee fee|"C"a2g "D"fed|
"Em"Bee fee|"Em"aee fef|"G"gfe d2A|"D"BAG FGA|
"Em"Bee fee|"Em"aee fed|"Em"Bee fee|"D"faf def|
"G"g3 gfe|"D"def "G"g2d|"Am"edc "Bm"d2A|"C"BAG "D"FED||

